X:35
T: Megüli a titkot bűntelen...
K: F
M: 2/4
L: 1/4
dg | g/f/e | f g | a2 | 
dg | g/f/e | f g | d2 | 
G c | c/B/ A | Bc | d2 | 
G c | c/B/ A | B c | G2 | 

